package/svg/chair.svg

<svg width="56" height="56" viewBox="0 0 56 56" fill="none" xmlns="http://www.w3.org/2000/svg">
<path d="M28.075 2.53816C28.214 2.50616 28.355 2.49416 28.494 2.50216C28.753 2.51616 28.994 2.59516 29.202 2.72416C29.411 2.85216 29.59 3.03316 29.718 3.25816C29.787 3.37916 29.839 3.51016 29.872 3.64916L29.875 3.66116C29.903 3.77916 29.915 3.89916 29.914 4.01716V18.8182L44.82 26.6642C44.848 26.6782 44.875 26.6932 44.902 26.7092C45.12 26.8382 45.298 27.0182 45.425 27.2292L45.429 27.2362C45.557 27.4532 45.633 27.7042 45.638 27.9732V28.0002V43.7242C45.638 44.5522 44.966 45.2242 44.138 45.2242C43.31 45.2242 42.638 44.5522 42.638 43.7242V30.4852L29.914 37.1822V52.0002C29.914 52.8282 29.242 53.5002 28.414 53.5002C27.586 53.5002 26.914 52.8282 26.914 52.0002V37.2032L13.362 30.4272V43.7242C13.362 44.5522 12.69 45.2242 11.862 45.2242C11.034 45.2242 10.362 44.5522 10.362 43.7242V12.2972C10.362 12.2632 10.362 12.2292 10.364 12.1962C10.378 11.9372 10.457 11.6952 10.586 11.4872C10.714 11.2792 10.895 11.1002 11.121 10.9722C11.15 10.9552 11.18 10.9392 11.21 10.9252L27.727 2.66616C27.833 2.61216 27.945 2.56916 28.063 2.54116L28.075 2.53816V2.53816ZM15.216 28.0002L28.396 34.5902L40.917 28.0002L28.396 21.4102L15.216 28.0002V28.0002ZM13.362 13.2032V25.5732L26.914 18.7972V6.42716L13.362 13.2032V13.2032Z" fill="black"/>
</svg>

<svg width="100%" height="100%" viewBox="0 0 56 56" version="1.1" xmlns="http://www.w3.org/2000/svg"><g><path d="M28.075,2.538c0.139,-0.032 0.28,-0.044 0.419,-0.036c0.259,0.014 0.5,0.093 0.708,0.222c0.209,0.128 0.388,0.309 0.516,0.534c0.069,0.121 0.121,0.252 0.154,0.391l0.003,0.012c0.028,0.118 0.04,0.238 0.039,0.356l-0,14.801l14.906,7.846c0.028,0.014 0.055,0.029 0.082,0.045c0.218,0.129 0.396,0.309 0.523,0.52l0.004,0.007c0.128,0.217 0.204,0.468 0.209,0.737l-0,0.027c-0,0 -0,15.724 -0,15.724c-0,0.828 -0.672,1.5 -1.5,1.5c-0.828,0 -1.5,-0.672 -1.5,-1.5l-0,-13.239l-12.724,6.697l-0,14.818c-0,0.828 -0.672,1.5 -1.5,1.5c-0.828,0 -1.5,-0.672 -1.5,-1.5l-0,-14.797l-13.552,-6.776l0,13.297c0,0.828 -0.672,1.5 -1.5,1.5c-0.828,0 -1.5,-0.672 -1.5,-1.5l0,-31.427c-0,-0.034 0,-0.068 0.002,-0.101c0.014,-0.259 0.093,-0.501 0.222,-0.709c0.128,-0.208 0.309,-0.387 0.535,-0.515c0.029,-0.017 0.059,-0.033 0.089,-0.047l16.517,-8.259c0.106,-0.054 0.218,-0.097 0.336,-0.125l0.012,-0.003Zm-12.859,25.462l13.18,6.59l12.521,-6.59l-12.521,-6.59l-13.18,6.59Zm-1.854,-14.797l0,12.37l13.552,-6.776l-0,-12.37l-13.552,6.776Z"/></g></svg>
